src/actions/32/mail-reply-list.svg

<svg xmlns="http://www.w3.org/2000/svg" viewBox="0 0 32 32">
  <defs id="defs3051">
    <style type="text/css" id="current-color-scheme">
      .ColorScheme-Text {
        color:#2e3440;
      }
      </style>
  </defs>
 <path 
     style="fill:currentColor;fill-opacity:1;stroke:none" 
     d="M 2 5 L 2 18 L 3 18 L 3 6 L 3.0234375 6 L 12.070312 14.841797 L 11 15.888672 L 11 17.285156 L 12.785156 15.541016 L 16 18.683594 L 19.214844 15.541016 L 21 17.285156 L 21 15.888672 L 19.929688 14.841797 L 28.976562 6 L 29 6 L 29 18 L 30 18 L 30 5 L 2 5 z M 4.453125 6 L 27.546875 6 L 16 17.285156 L 4.453125 6 z M 7 19 L 2 23 L 7 27 L 7 24 L 13 24 L 13 22 L 7 22 L 7 19 z M 21 20 L 21 21 L 30 21 L 30 20 L 21 20 z M 21 23 L 21 24 L 30 24 L 30 23 L 21 23 z M 13 26 L 13 27 L 20 27 L 20 26 L 13 26 z M 21 26 L 21 27 L 30 27 L 30 26 L 21 26 z "
     class="ColorScheme-Text"
     />
</svg>

<svg viewBox="0 0 32 32" xmlns="http://www.w3.org/2000/svg">
 <defs>
  <style type="text/css">.ColorScheme-Text {
        color:#2e3440;
      }</style>
 </defs>
 <path class="ColorScheme-Text" d="m2 5v13h1v-12h0.023438l9.0469 8.8418-1.0703 1.0469v1.3965l1.7852-1.7441 3.2148 3.1426 3.2148-3.1426 1.7852 1.7441v-1.3965l-1.0703-1.0469 9.0469-8.8418h0.023438v12h1v-13h-28zm2.4531 1h23.094l-11.547 11.285-11.547-11.285zm2.5469 13-5 4 5 4v-3h6v-2h-6v-3zm14 1v1h9v-1h-9zm0 3v1h9v-1h-9zm-8 3v1h7v-1h-7zm8 0v1h9v-1h-9z" fill="currentColor"/>
</svg>
